X: 20548
T: John Mhosaí McGinley's
R: hornpipe
M: 4/4
K: Dmajor
dB|AF~F2 DEFA|dced BAdB|AF~F2 DEFD|G2FG EA,CE|
AF~F2 DEFA|dced BAdB|AdcB AFGE|D/E/D CE D2:|
dc|BABc dcdf|b z fa gfgf|ecec BA B/c/d|AFAF EA,CE|
AF~F2 DEFA|dced BAdB|AdcB AFGE|D/E/D CE D2:|

